X: 10271
Q: "Moderate with expression."
M: 6/8
L: 1/8
K: Eb
!p!G2G G>^FG | Gcc c2d | "^cres."{d}e2e ({d}e>de) | dff f2b !f!|\
{e}g2g gfe | {d}f2f fed | "^dim."c2d (c/d/ec) | BGG G2 :|
EGE DFD | Ccc c2d | !p!ege dbB | dff f2b |\
!f!{e}g2g gfe | {d}f2f fed | "^dim."c2d (c/d/e)c | BGG HG2
EGE DFD | Ccc c2d !p!|ege dbB | dff f2 E/F/ !ff!|\


